symbols/web/perm_device_information/materialsymbolsoutlined/perm_device_information_grad200fill1_24px.svg

<svg xmlns="http://www.w3.org/2000/svg" height="24" width="24"><path d="M10.675 16.25V11.1h2.65v5.15ZM12 9.95q-.525 0-.887-.363-.363-.362-.363-.887t.363-.888q.362-.362.887-.362t.887.362q.363.363.363.888t-.363.887q-.362.363-.887.363ZM6.9 17.8h10.2V6.2H6.9Zm0 6.05q-1.1 0-1.875-.775Q4.25 22.3 4.25 21.2V2.8q0-1.1.775-1.875Q5.8.15 6.9.15h10.2q1.1 0 1.875.775.775.775.775 1.875v18.4q0 1.1-.775 1.875-.775.775-1.875.775Z"/></svg>

<svg xmlns="http://www.w3.org/2000/svg" height="24" width="24"><path d="M10.675 16.25V11.1H13.325V16.25ZM12 9.95Q11.475 9.95 11.113 9.587Q10.75 9.225 10.75 8.7Q10.75 8.175 11.113 7.812Q11.475 7.45 12 7.45Q12.525 7.45 12.887 7.812Q13.25 8.175 13.25 8.7Q13.25 9.225 12.887 9.587Q12.525 9.95 12 9.95ZM6.9 17.8H17.1V6.2H6.9ZM6.9 23.85Q5.8 23.85 5.025 23.075Q4.25 22.3 4.25 21.2V2.8Q4.25 1.7 5.025 0.925Q5.8 0.15 6.9 0.15H17.1Q18.2 0.15 18.975 0.925Q19.75 1.7 19.75 2.8V21.2Q19.75 22.3 18.975 23.075Q18.2 23.85 17.1 23.85Z"/></svg>
